; generated by PrusaSlicer 2.6.0 on 2023-08-21 at 16:59:08 UTC


;
;

;
;
; 

; external perimeters extrusion width = 0.45mm
; perimeters extrusion width = 0.45mm
; infill extrusion width = 0.45mm
; solid infill extrusion width = 0.45mm
; top infill extrusion width = 0.40mm
; first layer extrusion width = 0.42mm

M73 P0 R26
M201 X2500 Y2500 Z400 E5000 ; sets maximum accelerations, mm/sec^2
M203 X180 Y180 Z12 E80 ; sets maximum feedrates, mm / sec
M204 P2000 R1250 T2500 ; sets acceleration (P, T) and retract acceleration (R), mm/sec^2
M205 X8.00 Y8.00 Z2.00 E10.00 ; sets the jerk limits, mm/sec
M205 S0 T0 ; sets the minimum extruding and travel feed rate, mm/sec
;TYPE:Custom
M862.3 P "MINI" ; printer model check
G90 ; use absolute coordinates
M83 ; extruder relative mode
M104 S170 ; set extruder temp for bed leveling
M140 S60 ; set bed temp
M109 R170 ; wait for bed leveling temp
M190 S60 ; wait for bed temp
M204 T1250 ; set travel acceleration
G28 ; home all without mesh bed level
G29 ; mesh bed leveling 
M204 T2500 ; restore travel acceleration
M104 S215 ; set extruder temp
G92 E0
G1 Y-2 X179 F2400
G1 Z3 F720
M109 S215 ; wait for extruder temp

; intro line
G1 X170 F1000
G1 Z0.2 F720
G1 X110 E8 F900
G1 X40 E10 F700
G92 E0

M221 S95 ; set flow
G21 ; set units to millimeters
G90 ; use absolute coordinates
M83 ; use relative distances for extrusion
M900 K0.2 ; Filament gcode LA 1.5
; ; Filament gcode LA 1.0
M107
;LAYER_CHANGE
;Z:0.2
;HEIGHT:0.2
;BEFORE_LAYER_CHANGE
G92 E0.0
;0.2


G1 E-3.2 F4200
G1 Z.2 F720
;AFTER_LAYER_CHANGE
;0.2
G1 Z.4
G1 X69.015 Y48.052 F9000
G1 Z.2 F720
M73 P1 R26
G1 E3.2 F2400
M204 P600
;TYPE:Skirt/Brim
;WIDTH:0.42
G1 F1200
G1 X70.06 Y47.175 E.04277
G1 X71 Y46.982 E.03009
G1 X109 Y46.982 E1.19146
G1 X110.307 Y47.373 E.04277
G1 X111.183 Y48.419 E.04278
G1 X111.377 Y49.359 E.03009
G1 X111.377 Y123.609 E2.32806
G1 X110.985 Y124.916 E.04278
G1 X109.94 Y125.792 E.04275
G1 X108.937 Y125.985 E.03203
G1 X70.937 Y124.985 E1.19188
G1 X69.641 Y124.559 E.04277
G1 X68.793 Y123.491 E.04276
G1 X68.623 Y122.609 E.02816
G1 X68.623 Y49.359 E2.2967
G1 X68.997 Y48.109 E.04091
M204 P1000
; printing object DeskCableHook.stl id:0 copy 0
G1 E-2.24 F4200
;WIPE_START
G1 F7200
G1 X70.06 Y47.175 E-.78417
G1 X70.371 Y47.111 E-.17583
;WIPE_END
G1 Z.4 F720
G1 X75.228 Y54.064 F9000
G1 Z.2 F720
G1 E3.2 F2400
M204 P600
;TYPE:Perimeter
;WIDTH:0.419999
G1 F1200
G1 X75.213 Y54.137 E.00234
G1 X75.213 Y89.58 E1.11129
G1 X75.221 Y89.678 E.00308
G1 X75.379 Y89.98 E.01069
G1 X75.554 Y90.099 E.00664
G1 X75.779 Y90.146 E.00721
G1 X104.221 Y90.146 E.89178
G1 X104.42 Y90.11 E.00634
G1 X104.561 Y90.033 E.00504
G1 X104.757 Y89.764 E.01044
G1 X104.787 Y89.58 E.00585
G1 X104.787 Y79.346 E.32088
G1 X108.213 Y79.346 E.10742
M73 P2 R26
G1 X108.213 Y122.801 E1.3625
G1 X71.787 Y121.842 E1.14251
G1 X71.787 Y118.42 E.10729
M73 P2 R25
G1 X104.204 Y119.403 E1.01688
G1 X104.446 Y119.356 E.00773
G1 X104.63 Y119.228 E.00703
G1 X104.743 Y119.055 E.00648
G1 X104.787 Y118.837 E.00697
G1 X104.787 Y94.137 E.77445
G1 X104.757 Y93.954 E.00581
G1 X104.674 Y93.798 E.00554
G1 X104.42 Y93.608 E.00995
G1 X104.221 Y93.572 E.00634
G1 X71.787 Y93.572 E1.01694
G1 X71.787 Y50.146 E1.36159
G1 X108.213 Y50.146 E1.14211
G1 X108.213 Y69.772 E.61536
G1 X104.787 Y69.772 E.10742
G1 X104.787 Y54.137 E.49022
G1 X104.741 Y53.913 E.00717
G1 X104.621 Y53.737 E.00668
G1 X104.446 Y53.618 E.00664
G1 X104.221 Y53.572 E.0072
G1 X75.779 Y53.572 E.89178
G1 X75.681 Y53.58 E.00308
M73 P3 R25
G1 X75.379 Y53.737 E.01067
G1 X75.259 Y53.913 E.00668
G1 X75.24 Y54.005 E.00295
M204 P1000
G1 X75.59 Y54.137 F9000
M204 P600
;TYPE:External perimeter
G1 F1200
G1 X75.59 Y89.58 E1.11129
G1 X75.645 Y89.714 E.00454
G1 X75.779 Y89.769 E.00454
G1 X104.221 Y89.769 E.89178
G1 X104.335 Y89.731 E.00377
G1 X104.41 Y89.58 E.00529
G1 X104.41 Y78.969 E.3327
G1 X108.59 Y78.969 E.13106
G1 X108.59 Y123.188 E1.38645
G1 X71.41 Y122.21 E1.16615
G1 X71.41 Y118.031 E.13103
G1 X104.216 Y119.026 E1.02908
G1 X104.358 Y118.967 E.00482
G1 X104.41 Y118.837 E.00439
G1 X104.41 Y94.137 E.77445
G1 X104.372 Y94.024 E.00374
G1 X104.221 Y93.949 E.00529
G1 X71.41 Y93.949 E1.02876
G1 X71.41 Y49.769 E1.38523
G1 X108.59 Y49.769 E1.16575
M73 P4 R25
G1 X108.59 Y70.149 E.639
G1 X104.41 Y70.149 E.13106
G1 X104.41 Y54.137 E.50204
G1 X104.355 Y54.004 E.00451
G1 X104.221 Y53.949 E.00454
G1 X75.779 Y53.949 E.89178
G1 X75.645 Y54.004 E.00454
G1 X75.613 Y54.082 E.00264
M204 P1000
G1 X75.204 Y54.241 F9000
G1 E-2.24 F4200
;WIPE_START
G1 F7200
G1 X75.612 Y55.814 E-.96
;WIPE_END
G1 Z.4 F720
G1 X107.278 Y50.316 F9000
G1 Z.2 F720
G1 E3.2 F2400
M204 P600
;TYPE:Solid infill
;WIDTH:0.421178
G1 F1200
G1 X107.874 Y50.911 E.02649
G1 X107.874 Y51.446 E.01683
G1 X106.913 Y50.485 E.04275
G1 X106.378 Y50.485 E.01683
G1 X107.874 Y51.981 E.06654
G1 X107.874 Y52.516 E.01683
G1 X105.843 Y50.485 E.09034
G1 X105.308 Y50.485 E.01683
G1 X107.874 Y53.05 E.11411
G1 X107.874 Y53.585 E.01683
G1 X104.773 Y50.485 E.13791
G1 X104.239 Y50.485 E.0168
G1 X107.874 Y54.12 E.16169
G1 X107.874 Y54.655 E.01683
G1 X103.704 Y50.485 E.18548
G1 X103.169 Y50.485 E.01683
G1 X107.874 Y55.19 E.20928
G1 X107.874 Y55.725 E.01683
G1 X102.634 Y50.485 E.23308
G1 X102.099 Y50.485 E.01683
G1 X107.874 Y56.26 E.25687
G1 X107.874 Y56.795 E.01683
G1 X105.107 Y54.029 E.12305
G1 X105.055 Y53.778 E.00806
G1 X104.863 Y53.496 E.01073
G1 X104.581 Y53.304 E.01073
G1 X104.33 Y53.252 E.00806
G1 X101.564 Y50.485 E.12305
G1 X101.029 Y50.485 E.01683
G1 X103.776 Y53.232 E.12219
G1 X103.241 Y53.232 E.01683
G1 X100.494 Y50.485 E.12219
G1 X99.959 Y50.485 E.01683
G1 X102.706 Y53.232 E.12219
G1 X102.171 Y53.232 E.01683
G1 X99.424 Y50.485 E.12219
G1 X98.889 Y50.485 E.01683
G1 X101.636 Y53.232 E.12219
G1 X101.101 Y53.232 E.01683
G1 X98.354 Y50.485 E.12219
G1 X97.819 Y50.485 E.01683
G1 X100.566 Y53.232 E.12219
G1 X100.031 Y53.232 E.01683
G1 X97.284 Y50.485 E.12219
G1 X96.749 Y50.485 E.01683
G1 X99.496 Y53.232 E.12219
G1 X98.962 Y53.232 E.0168
G1 X96.214 Y50.485 E.12221
G1 X95.68 Y50.485 E.0168
G1 X98.427 Y53.232 E.12219
G1 X97.892 Y53.232 E.01683
G1 X95.145 Y50.485 E.12219
G1 X94.61 Y50.485 E.01683
G1 X97.357 Y53.232 E.12219
G1 X96.822 Y53.232 E.01683
G1 X94.075 Y50.485 E.12219
G1 X93.54 Y50.485 E.01683
G1 X96.287 Y53.232 E.12219
G1 X95.752 Y53.232 E.01683
G1 X93.005 Y50.485 E.12219
G1 X92.47 Y50.485 E.01683
G1 X95.217 Y53.232 E.12219
G1 X94.682 Y53.232 E.01683
G1 X91.935 Y50.485 E.12219
G1 X91.4 Y50.485 E.01683
G1 X94.147 Y53.232 E.12219
G1 X93.612 Y53.232 E.01683
G1 X90.865 Y50.485 E.12219
G1 X90.33 Y50.485 E.01683
G1 X93.077 Y53.232 E.12219
G1 X92.542 Y53.232 E.01683
G1 X89.795 Y50.485 E.12219
G1 X89.26 Y50.485 E.01683
G1 X92.007 Y53.232 E.12219
G1 X91.472 Y53.232 E.01683
G1 X88.725 Y50.485 E.12219
G1 X88.19 Y50.485 E.01683
G1 X90.937 Y53.232 E.12219
G1 X90.403 Y53.232 E.0168
G1 X87.655 Y50.485 E.12221
G1 X87.121 Y50.485 E.0168
G1 X89.868 Y53.232 E.12219
G1 X89.333 Y53.232 E.01683
M73 P5 R25
G1 X86.586 Y50.485 E.12219
G1 X86.051 Y50.485 E.01683
G1 X88.798 Y53.232 E.12219
G1 X88.263 Y53.232 E.01683
G1 X85.516 Y50.485 E.12219
G1 X84.981 Y50.485 E.01683
G1 X87.728 Y53.232 E.12219
G1 X87.193 Y53.232 E.01683
G1 X84.446 Y50.485 E.12219
G1 X83.911 Y50.485 E.01683
G1 X86.658 Y53.232 E.12219
G1 X86.123 Y53.232 E.01683
G1 X83.376 Y50.485 E.12219
G1 X82.841 Y50.485 E.01683
G1 X85.588 Y53.232 E.12219
G1 X85.053 Y53.232 E.01683
G1 X82.306 Y50.485 E.12219
G1 X81.771 Y50.485 E.01683
G1 X84.518 Y53.232 E.12219
G1 X83.983 Y53.232 E.01683
G1 X81.236 Y50.485 E.12219
G1 X80.701 Y50.485 E.01683
G1 X83.448 Y53.232 E.12219
G1 X82.913 Y53.232 E.01683
G1 X80.166 Y50.485 E.12219
G1 X79.631 Y50.485 E.01683
G1 X82.378 Y53.232 E.12219
G1 X81.844 Y53.232 E.0168
G1 X79.096 Y50.485 E.12221
G1 X78.562 Y50.485 E.0168
G1 X81.309 Y53.232 E.12219
G1 X80.774 Y53.232 E.01683
G1 X78.027 Y50.485 E.12219
G1 X77.492 Y50.485 E.01683
G1 X80.239 Y53.232 E.12219
G1 X79.704 Y53.232 E.01683
G1 X76.957 Y50.485 E.12219
G1 X76.422 Y50.485 E.01683
G1 X79.169 Y53.232 E.12219
G1 X78.634 Y53.232 E.01683
G1 X75.887 Y50.485 E.12219
G1 X75.352 Y50.485 E.01683
G1 X78.099 Y53.232 E.12219
G1 X77.564 Y53.232 E.01683
G1 X74.817 Y50.485 E.12219
G1 X74.282 Y50.485 E.01683
G1 X77.029 Y53.232 E.12219
G1 X76.494 Y53.232 E.01683
G1 X73.747 Y50.485 E.12219
G1 X73.212 Y50.485 E.01683
G1 X75.959 Y53.232 E.12219
G1 X75.62 Y53.246 E.01067
G1 X75.48 Y53.288 E.0046
G1 X72.677 Y50.485 E.12468
G1 X72.142 Y50.485 E.01683
G1 X75.146 Y53.489 E.13362
G1 X74.945 Y53.778 E.01107
G1 X74.937 Y53.815 E.00119
G1 X72.126 Y51.004 E.12503
G1 X72.126 Y51.539 E.01683
G1 X74.874 Y54.286 E.12221
G1 X74.874 Y54.821 E.01683
G1 X72.126 Y52.074 E.12221
G1 X72.126 Y52.609 E.01683
G1 X74.874 Y55.356 E.12221
G1 X74.874 Y55.891 E.01683
G1 X72.126 Y53.144 E.12221
G1 X72.126 Y53.679 E.01683
G1 X74.874 Y56.426 E.12221
G1 X74.874 Y56.961 E.01683
G1 X72.126 Y54.214 E.12221
G1 X72.126 Y54.749 E.01683
G1 X74.874 Y57.496 E.12221
G1 X74.874 Y58.031 E.01683
G1 X72.126 Y55.284 E.12221
G1 X72.126 Y55.819 E.01683
G1 X74.874 Y58.566 E.12221
G1 X74.874 Y59.101 E.01683
G1 X72.126 Y56.354 E.12221
G1 X72.126 Y56.889 E.01683
G1 X74.874 Y59.636 E.12221
G1 X74.874 Y60.171 E.01683
G1 X72.126 Y57.424 E.12221
G1 X72.126 Y57.959 E.01683
G1 X74.874 Y60.706 E.12221
G1 X74.874 Y61.241 E.01683
G1 X72.126 Y58.494 E.12221
G1 X72.126 Y59.028 E.0168
G1 X74.874 Y61.776 E.12223
G1 X74.874 Y62.311 E.01683
G1 X72.126 Y59.563 E.12223
G1 X72.126 Y60.098 E.01683
G1 X74.874 Y62.845 E.12221
G1 X74.874 Y63.38 E.01683
G1 X72.126 Y60.633 E.12221
G1 X72.126 Y61.168 E.01683
G1 X74.874 Y63.915 E.12221
G1 X74.874 Y64.45 E.01683
G1 X72.126 Y61.703 E.12221
G1 X72.126 Y62.238 E.01683
G1 X74.874 Y64.985 E.12221
G1 X74.874 Y65.52 E.01683
G1 X72.126 Y62.773 E.12221
G1 X72.126 Y63.308 E.01683
G1 X74.874 Y66.055 E.12221
G1 X74.874 Y66.59 E.01683
G1 X72.126 Y63.843 E.12221
G1 X72.126 Y64.378 E.01683
G1 X74.874 Y67.125 E.12221
G1 X74.874 Y67.66 E.01683
G1 X72.126 Y64.913 E.12221
G1 X72.126 Y65.448 E.01683
G1 X74.874 Y68.195 E.12221
G1 X74.874 Y68.73 E.01683
G1 X72.126 Y65.983 E.12221
G1 X72.126 Y66.518 E.01683
G1 X74.874 Y69.265 E.12221
G1 X74.874 Y69.8 E.01683
G1 X72.126 Y67.053 E.12221
G1 X72.126 Y67.587 E.0168
G1 X74.874 Y70.335 E.12223
G1 X74.874 Y70.87 E.01683
G1 X72.126 Y68.122 E.12223
G1 X72.126 Y68.657 E.01683
G1 X74.874 Y71.404 E.12221
G1 X74.874 Y71.939 E.01683
G1 X72.126 Y69.192 E.12221
G1 X72.126 Y69.727 E.01683
G1 X74.874 Y72.474 E.12221
G1 X74.874 Y73.009 E.01683
G1 X72.126 Y70.262 E.12221
G1 X72.126 Y70.797 E.01683
M73 P5 R24
G1 X74.874 Y73.544 E.12221
G1 X74.874 Y74.079 E.01683
G1 X72.126 Y71.332 E.12221
G1 X72.126 Y71.867 E.01683
M73 P6 R24
G1 X74.874 Y74.614 E.12221
G1 X74.874 Y75.149 E.01683
G1 X72.126 Y72.402 E.12221
G1 X72.126 Y72.937 E.01683
G1 X74.874 Y75.684 E.12221
G1 X74.874 Y76.219 E.01683
G1 X72.126 Y73.472 E.12221
G1 X72.126 Y74.007 E.01683
G1 X74.874 Y76.754 E.12221
G1 X74.874 Y77.289 E.01683
G1 X72.126 Y74.542 E.12221
G1 X72.126 Y75.077 E.01683
G1 X74.874 Y77.824 E.12221
G1 X74.874 Y78.359 E.01683
G1 X72.126 Y75.612 E.12221
G1 X72.126 Y76.147 E.01683
G1 X74.874 Y78.894 E.12221
G1 X74.874 Y79.429 E.01683
G1 X72.126 Y76.681 E.12223
G1 X72.126 Y77.216 E.01683
G1 X74.874 Y79.963 E.12221
G1 X74.874 Y80.498 E.01683
G1 X72.126 Y77.751 E.12221
G1 X72.126 Y78.286 E.01683
G1 X74.874 Y81.033 E.12221
G1 X74.874 Y81.568 E.01683
G1 X72.126 Y78.821 E.12221
G1 X72.126 Y79.356 E.01683
G1 X74.874 Y82.103 E.12221
G1 X74.874 Y82.638 E.01683
G1 X72.126 Y79.891 E.12221
G1 X72.126 Y80.426 E.01683
G1 X74.874 Y83.173 E.12221
G1 X74.874 Y83.708 E.01683
G1 X72.126 Y80.961 E.12221
G1 X72.126 Y81.496 E.01683
G1 X74.874 Y84.243 E.12221
G1 X74.874 Y84.778 E.01683
G1 X72.126 Y82.031 E.12221
G1 X72.126 Y82.566 E.01683
G1 X74.874 Y85.313 E.12221
G1 X74.874 Y85.848 E.01683
G1 X72.126 Y83.101 E.12221
G1 X72.126 Y83.636 E.01683
G1 X74.874 Y86.383 E.12221
G1 X74.874 Y86.918 E.01683
G1 X72.126 Y84.171 E.12221
G1 X72.126 Y84.706 E.01683
G1 X74.874 Y87.453 E.12221
G1 X74.874 Y87.988 E.01683
G1 X72.126 Y85.24 E.12223
G1 X72.126 Y85.775 E.01683
G1 X74.874 Y88.522 E.12221
G1 X74.874 Y89.057 E.01683
G1 X71.957 Y86.141 E.12973
M204 P1000
G1 E-2.24 F4200
;WIPE_START
G1 F7200
G1 X73.182 Y87.366 E-.96
;WIPE_END
G1 Z.4 F720
G1 X108.043 Y57.5 F9000
G1 Z.2 F720
G1 E3.2 F2400
M204 P600
G1 F1200
G1 X105.126 Y54.583 E.12975
G1 X105.126 Y55.118 E.01683
G1 X107.874 Y57.865 E.12221
G1 X107.874 Y58.4 E.01683
G1 X105.126 Y55.653 E.12221
G1 X105.126 Y56.188 E.01683
G1 X107.874 Y58.935 E.12221
G1 X107.874 Y59.47 E.01683
G1 X105.126 Y56.723 E.12221
G1 X105.126 Y57.258 E.01683
G1 X107.874 Y60.005 E.12221
G1 X107.874 Y60.54 E.01683
G1 X105.126 Y57.792 E.12223
G1 X105.126 Y58.327 E.01683
G1 X107.874 Y61.075 E.12223
G1 X107.874 Y61.609 E.0168
G1 X105.126 Y58.862 E.12221
G1 X105.126 Y59.397 E.01683
G1 X107.874 Y62.144 E.12221
G1 X107.874 Y62.679 E.01683
G1 X105.126 Y59.932 E.12221
G1 X105.126 Y60.467 E.01683
G1 X107.874 Y63.214 E.12221
G1 X107.874 Y63.749 E.01683
G1 X105.126 Y61.002 E.12221
G1 X105.126 Y61.537 E.01683
G1 X107.874 Y64.284 E.12221
G1 X107.874 Y64.819 E.01683
G1 X105.126 Y62.072 E.12221
G1 X105.126 Y62.607 E.01683
G1 X107.874 Y65.354 E.12221
G1 X107.874 Y65.889 E.01683
G1 X105.126 Y63.142 E.12221
G1 X105.126 Y63.677 E.01683
G1 X107.874 Y66.424 E.12221
G1 X107.874 Y66.959 E.01683
G1 X105.126 Y64.212 E.12221
G1 X105.126 Y64.747 E.01683
G1 X107.874 Y67.494 E.12221
G1 X107.874 Y68.029 E.01683
G1 X105.126 Y65.282 E.12221
G1 X105.126 Y65.817 E.01683
G1 X107.874 Y68.564 E.12221
G1 X107.874 Y69.099 E.01683
G1 X105.126 Y66.351 E.12223
G1 X105.126 Y66.886 E.01683
G1 X107.672 Y69.432 E.11325
G1 X107.138 Y69.432 E.0168
G1 X105.126 Y67.421 E.08947
G1 X105.126 Y67.956 E.01683
G1 X106.603 Y69.432 E.06568
G1 X106.068 Y69.432 E.01683
G1 X105.126 Y68.491 E.04188
G1 X105.126 Y69.026 E.01683
G1 X105.702 Y69.602 E.02562
M204 P1000
G1 E-2.24 F4200
;WIPE_START
G1 F7200
G1 X105.126 Y69.026 E-.45142
G1 X105.126 Y68.491 E-.29648
G1 X105.397 Y68.761 E-.2121
;WIPE_END
G1 Z.4 F720
G1 X107.592 Y79.516 F9000
G1 Z.2 F720
G1 E3.2 F2400
M204 P600
G1 F1200
G1 X107.874 Y79.797 E.01252
G1 X107.874 Y80.332 E.01683
G1 X107.227 Y79.685 E.02878
G1 X106.692 Y79.685 E.01683
G1 X107.874 Y80.867 E.05258
G1 X107.874 Y81.402 E.01683
G1 X106.157 Y79.685 E.07637
G1 X105.622 Y79.685 E.01683
G1 X107.874 Y81.937 E.10017
G1 X107.874 Y82.472 E.01683
G1 X105.126 Y79.725 E.12221
G1 X105.126 Y80.26 E.01683
G1 X107.874 Y83.007 E.12221
G1 X107.874 Y83.542 E.01683
G1 X105.126 Y80.795 E.12221
G1 X105.126 Y81.33 E.01683
G1 X107.874 Y84.077 E.12221
G1 X107.874 Y84.612 E.01683
G1 X105.126 Y81.865 E.12221
G1 X105.126 Y82.4 E.01683
M73 P7 R24
G1 X107.874 Y85.147 E.12221
G1 X107.874 Y85.682 E.01683
G1 X105.126 Y82.935 E.12221
G1 X105.126 Y83.469 E.0168
G1 X107.874 Y86.217 E.12223
G1 X107.874 Y86.752 E.01683
G1 X105.126 Y84.004 E.12223
G1 X105.126 Y84.539 E.01683
G1 X107.874 Y87.286 E.12221
G1 X107.874 Y87.821 E.01683
G1 X105.126 Y85.074 E.12221
G1 X105.126 Y85.609 E.01683
G1 X107.874 Y88.356 E.12221
G1 X107.874 Y88.891 E.01683
G1 X105.126 Y86.144 E.12221
G1 X105.126 Y86.679 E.01683
G1 X107.874 Y89.426 E.12221
G1 X107.874 Y89.961 E.01683
G1 X105.126 Y87.214 E.12221
G1 X105.126 Y87.749 E.01683
G1 X107.874 Y90.496 E.12221
G1 X107.874 Y91.031 E.01683
G1 X105.126 Y88.284 E.12221
G1 X105.126 Y88.819 E.01683
G1 X107.874 Y91.566 E.12221
G1 X107.874 Y92.101 E.01683
G1 X105.126 Y89.354 E.12221
G1 X105.126 Y89.593 E.00752
G1 X105.084 Y89.846 E.00807
G1 X107.874 Y92.636 E.1241
G1 X107.874 Y93.171 E.01683
G1 X104.887 Y90.184 E.13286
G1 X104.765 Y90.306 E.00543
G1 X104.577 Y90.409 E.00674
G1 X107.874 Y93.706 E.14665
G1 X107.874 Y94.241 E.01683
G1 X104.118 Y90.485 E.16707
G1 X103.583 Y90.485 E.01683
G1 X107.874 Y94.776 E.19086
G1 X107.874 Y95.311 E.01683
G1 X103.048 Y90.485 E.21466
G1 X102.513 Y90.485 E.01683
G1 X107.874 Y95.845 E.23844
G1 X107.874 Y96.38 E.01683
G1 X101.978 Y90.485 E.26223
G1 X101.444 Y90.485 E.0168
G1 X104.191 Y93.232 E.12219
G1 X104.537 Y93.287 E.01102
G1 X104.765 Y93.412 E.00818
G1 X104.947 Y93.594 E.0081
G1 X105.08 Y93.844 E.00891
