; generated by PrusaSlicer 2.6.0 on 2023-08-09 at 20:55:10 UTC


;
;

;
;
; 

; external perimeters extrusion width = 0.45mm
; perimeters extrusion width = 0.45mm
; infill extrusion width = 0.45mm
; solid infill extrusion width = 0.45mm
; top infill extrusion width = 0.40mm
; first layer extrusion width = 0.42mm

M73 P0 R24
M201 X2500 Y2500 Z400 E5000 ; sets maximum accelerations, mm/sec^2
M203 X180 Y180 Z12 E80 ; sets maximum feedrates, mm / sec
M204 P2000 R1250 T2500 ; sets acceleration (P, T) and retract acceleration (R), mm/sec^2
M205 X8.00 Y8.00 Z2.00 E10.00 ; sets the jerk limits, mm/sec
M205 S0 T0 ; sets the minimum extruding and travel feed rate, mm/sec
;TYPE:Custom
M862.3 P "MINI" ; printer model check
G90 ; use absolute coordinates
M83 ; extruder relative mode
M104 S170 ; set extruder temp for bed leveling
M140 S60 ; set bed temp
M109 R170 ; wait for bed leveling temp
M190 S60 ; wait for bed temp
M204 T1250 ; set travel acceleration
G28 ; home all without mesh bed level
G29 ; mesh bed leveling 
M204 T2500 ; restore travel acceleration
M104 S215 ; set extruder temp
G92 E0
G1 Y-2 X179 F2400
G1 Z3 F720
M109 S215 ; wait for extruder temp

; intro line
G1 X170 F1000
G1 Z0.2 F720
G1 X110 E8 F900
G1 X40 E10 F700
G92 E0

M221 S95 ; set flow
G21 ; set units to millimeters
G90 ; use absolute coordinates
M83 ; use relative distances for extrusion
M900 K0.2 ; Filament gcode LA 1.5
; ; Filament gcode LA 1.0
M107
;LAYER_CHANGE
;Z:0.2
;HEIGHT:0.2
;BEFORE_LAYER_CHANGE
G92 E0.0
;0.2


G1 E-3.2 F4200
M73 P1 R24
G1 Z.2 F720
;AFTER_LAYER_CHANGE
;0.2
G1 Z.4
G1 X59.719 Y58.879 F9000
G1 Z.2 F720
G1 E3.2 F2400
M204 P600
;TYPE:Skirt/Brim
;WIDTH:0.42
G1 F1200
G1 X61.458 Y57.541 E.0688
G1 X63.03 Y56.473 E.05959
G1 X65.723 Y55.274 E.09243
G1 X66.27 Y55.096 E.01804
G1 X69.154 Y54.483 E.09245
G1 X69.726 Y54.423 E.01803
G1 X72.674 Y54.423 E.09243
G1 X73.246 Y54.483 E.01803
G1 X76.13 Y55.096 E.09245
G1 X76.677 Y55.274 E.01804
G1 X79.37 Y56.473 E.09243
G1 X79.869 Y56.761 E.01806
G1 X82.254 Y58.493 E.09242
G1 X82.681 Y58.879 E.01805
G1 X84.654 Y61.069 E.09242
G1 X84.992 Y61.535 E.01805
G1 X86.466 Y64.088 E.09243
G1 X86.7 Y64.614 E.01805
G1 X87.611 Y67.417 E.09241
G1 X87.731 Y67.981 E.01808
G1 X88.039 Y70.912 E.09241
G1 X88.039 Y71.488 E.01806
G1 X87.731 Y74.419 E.09241
G1 X87.611 Y74.983 E.01808
G1 X86.7 Y77.786 E.09241
G1 X86.466 Y78.312 E.01805
G1 X84.992 Y80.865 E.09243
G1 X84.654 Y81.331 E.01805
G1 X82.681 Y83.521 E.09242
G1 X82.254 Y83.907 E.01805
G1 X79.869 Y85.639 E.09242
G1 X79.37 Y85.927 E.01806
G1 X76.677 Y87.126 E.09243
G1 X76.13 Y87.304 E.01804
G1 X73.246 Y87.917 E.09245
G1 X72.674 Y87.977 E.01803
G1 X69.726 Y87.977 E.09243
G1 X69.154 Y87.917 E.01803
G1 X66.27 Y87.304 E.09245
G1 X65.723 Y87.126 E.01804
G1 X63.03 Y85.927 E.09243
G1 X62.531 Y85.639 E.01806
G1 X60.146 Y83.907 E.09242
G1 X59.719 Y83.521 E.01805
G1 X57.746 Y81.331 E.09242
G1 X57.408 Y80.865 E.01805
G1 X55.934 Y78.312 E.09243
G1 X55.7 Y77.786 E.01805
G1 X54.789 Y74.983 E.09241
G1 X54.669 Y74.419 E.01808
G1 X54.361 Y71.488 E.09241
G1 X54.361 Y70.912 E.01806
G1 X54.669 Y67.981 E.09241
G1 X54.789 Y67.417 E.01808
G1 X55.7 Y64.614 E.09241
G1 X55.934 Y64.088 E.01805
G1 X57.408 Y61.535 E.09243
G1 X57.746 Y61.069 E.01805
G1 X59.678 Y58.923 E.09054
M204 P1000
G1 X59.963 Y59.172 F9000
M204 P600
G1 F1200
G1 X61.68 Y57.846 E.06802
G1 X63.183 Y56.817 E.05711
G1 X66.349 Y55.465 E.10794
G1 X69.726 Y54.8 E.10792
G1 X73.168 Y54.852 E.10793
G1 X76.524 Y55.619 E.10794
G1 X79.647 Y57.066 E.10792
G1 X82.401 Y59.131 E.10793
G1 X84.666 Y61.724 E.10795
G1 X86.14 Y64.276 E.0924
G1 X87.253 Y67.534 E.10795
G1 X87.664 Y70.952 E.10794
G1 X87.356 Y74.38 E.10792
G1 X86.843 Y76.128 E.05712
G1 X86.14 Y78.124 E.06635
G1 X84.374 Y81.078 E.10791
G1 X82.032 Y83.601 E.10794
G1 X79.217 Y85.583 E.10795
G1 X76.051 Y86.935 E.10794
G1 X72.674 Y87.6 E.10792
G1 X69.232 Y87.548 E.10793
G1 X65.876 Y86.781 E.10794
G1 X62.753 Y85.334 E.10792
G1 X60.368 Y83.601 E.09244
G1 X58.026 Y81.078 E.10794
G1 X56.26 Y78.124 E.10791
G1 X55.147 Y74.866 E.10795
G1 X54.736 Y71.448 E.10794
G1 X55.044 Y68.02 E.10792
G1 X56.058 Y64.73 E.10794
G1 X57.734 Y61.724 E.10791
G1 X59.924 Y59.217 E.10437
M204 P1000
; printing object PatioDoorSensorMount.stl id:0 copy 0
G1 E-2.24 F4200
;WIPE_START
G1 F7200
G1 X61.289 Y58.151 E-.96
;WIPE_END
G1 Z.4 F720
G1 X81.967 Y63.377 F9000
G1 Z.2 F720
G1 E3.2 F2400
M204 P600
;TYPE:Perimeter
;WIDTH:0.419999
G1 F1200
G1 X83.358 Y65.787 E.08725
G1 X84.218 Y68.433 E.08724
G1 X84.509 Y71.2 E.08724
G1 X84.218 Y73.967 E.08724
G1 X83.358 Y76.613 E.08724
G1 X81.967 Y79.023 E.08725
G1 X80.105 Y81.09 E.08723
G1 X77.854 Y82.726 E.08725
G1 X75.313 Y83.857 E.08721
G1 X72.591 Y84.436 E.08726
G1 X69.809 Y84.436 E.08723
G1 X67.087 Y83.857 E.08726
G1 X64.546 Y82.726 E.08721
G1 X62.295 Y81.09 E.08725
G1 X60.433 Y79.023 E.08723
G1 X59.042 Y76.613 E.08725
G1 X58.182 Y73.967 E.08724
G1 X57.891 Y71.2 E.08724
M73 P2 R24
G1 X58.182 Y68.433 E.08724
G1 X59.042 Y65.787 E.08724
G1 X60.433 Y63.377 E.08725
G1 X62.295 Y61.31 E.08723
G1 X64.546 Y59.674 E.08725
G1 X67.087 Y58.543 E.08721
G1 X69.809 Y57.964 E.08726
G1 X72.591 Y57.964 E.08723
G1 X75.313 Y58.543 E.08726
G1 X77.854 Y59.674 E.08721
G1 X80.105 Y61.31 E.08725
G1 X81.927 Y63.333 E.08536
M204 P1000
G1 X82.274 Y63.155 F9000
M204 P600
;TYPE:External perimeter
G1 F1200
G1 X83.704 Y65.633 E.0897
G1 X84.589 Y68.354 E.08971
G1 X84.888 Y71.2 E.08973
G1 X84.589 Y74.046 E.08973
G1 X83.704 Y76.767 E.08971
G1 X82.274 Y79.245 E.0897
G1 X80.359 Y81.372 E.08974
G1 X78.044 Y83.054 E.08972
G1 X75.43 Y84.218 E.08972
G1 X72.631 Y84.813 E.08972
G1 X69.769 Y84.813 E.08974
G1 X66.97 Y84.218 E.08972
G1 X64.356 Y83.054 E.08972
G1 X62.041 Y81.372 E.08972
G1 X60.126 Y79.245 E.08974
G1 X58.696 Y76.767 E.0897
G1 X57.811 Y74.046 E.08971
G1 X57.512 Y71.2 E.08973
G1 X57.811 Y68.354 E.08973
G1 X58.696 Y65.633 E.08971
G1 X60.126 Y63.155 E.0897
G1 X62.041 Y61.028 E.08974
G1 X64.356 Y59.346 E.08972
G1 X66.97 Y58.182 E.08972
G1 X69.769 Y57.587 E.08972
G1 X72.631 Y57.587 E.08974
G1 X75.43 Y58.182 E.08972
G1 X78.044 Y59.346 E.08972
G1 X80.359 Y61.028 E.08972
G1 X82.233 Y63.11 E.08783
M204 P1000
G1 X82.111 Y63.52 F9000
G1 E-2.24 F4200
;WIPE_START
G1 F7200
G1 X83.106 Y64.607 E-.96
;WIPE_END
G1 Z.4 F720
G1 X66.11 Y74.391 F9000
G1 Z.2 F720
G1 E3.2 F2400
M204 P600
;TYPE:Perimeter
G1 F1200
G1 X66.038 Y74.274 E.00431
G1 X65.314 Y72.406 E.06282
G1 X65.276 Y72.202 E.00651
G1 X65.276 Y70.198 E.06283
G1 X65.314 Y69.994 E.00651
G1 X66.038 Y68.126 E.06282
G1 X66.141 Y67.956 E.00623
G1 X67.497 Y66.469 E.0631
G1 X67.663 Y66.343 E.00653
G1 X69.456 Y65.45 E.0628
G1 X69.656 Y65.394 E.00651
G1 X71.651 Y65.209 E.06282
G1 X71.858 Y65.228 E.00652
G1 X73.785 Y65.776 E.06282
G1 X73.971 Y65.869 E.00652
G1 X75.569 Y67.076 E.06279
G1 X75.709 Y67.23 E.00653
G1 X76.764 Y68.933 E.06281
G1 X76.839 Y69.127 E.00652
G1 X77.207 Y71.096 E.06281
G1 X77.207 Y71.304 E.00652
G1 X76.839 Y73.273 E.06281
G1 X76.764 Y73.467 E.00652
G1 X75.708 Y75.173 E.06291
G1 X75.432 Y75.428 E.01178
G1 X73.971 Y76.531 E.0574
G1 X73.785 Y76.624 E.00652
G1 X71.858 Y77.172 E.06282
G1 X71.651 Y77.191 E.00652
G1 X69.656 Y77.006 E.06282
G1 X69.456 Y76.95 E.00651
G1 X67.663 Y76.057 E.0628
G1 X67.46 Y75.891 E.00822
G1 X66.141 Y74.442 E.06144
M204 P1000
G1 X66.665 Y74.459 F9000
M204 P600
;TYPE:External perimeter
M73 P2 R23
G1 F1200
G1 X66.424 Y74.195 E.01121
G1 X65.666 Y72.27 E.06487
G1 X65.653 Y70.198 E.06497
G1 X65.666 Y70.13 E.00217
G1 X66.424 Y68.205 E.06487
G1 X67.776 Y66.723 E.0629
G1 X69.624 Y65.788 E.06494
G1 X71.686 Y65.584 E.06497
G1 X73.681 Y66.139 E.06493
G1 X75.345 Y67.379 E.06507
G1 X76.443 Y69.132 E.06486
G1 X76.837 Y71.165 E.06493
G1 X76.837 Y71.235 E.00219
G1 X76.443 Y73.268 E.06493
G1 X75.388 Y74.973 E.06287
G1 X75.204 Y75.127 E.00752
G1 X73.743 Y76.23 E.0574
G1 X71.755 Y76.809 E.06492
G1 X71.686 Y76.816 E.00217
G1 X69.624 Y76.612 E.06497
G1 X67.831 Y75.719 E.0628
G1 X66.705 Y74.503 E.05196
M204 P1000
G1 X66.321 Y74.559 F9000
G1 E-2.24 F4200
;WIPE_START
G1 F7200
G1 X66.424 Y74.195 E-.23104
G1 X65.942 Y72.971 E-.72896
;WIPE_END
G1 Z.4 F720
G1 X81.883 Y63.571 F9000
G1 Z.2 F720
G1 E3.2 F2400
M204 P600
;TYPE:Solid infill
;WIDTH:0.423757
G1 F1200
G1 X79.871 Y61.559 E.0901
G1 X77.901 Y60.128 E.0771
G1 X82.155 Y64.381 E.19049
G1 X82.89 Y65.656 E.0466
G1 X76.82 Y59.585 E.27186
G1 X75.849 Y59.153 E.03365
G1 X83.251 Y66.554 E.33147
G1 X83.51 Y67.352 E.02657
G1 X74.976 Y58.818 E.38218
G1 X74.292 Y58.673 E.02214
G1 X83.769 Y68.15 E.42441
G1 X83.884 Y68.504 E.01179
G1 X83.919 Y68.839 E.01067
G1 X73.608 Y58.527 E.46179
G1 X72.924 Y58.382 E.02214
G1 X83.982 Y69.441 E.49524
G1 X84.046 Y70.043 E.01917
M73 P3 R23
G1 X72.307 Y58.304 E.52571
G1 X71.768 Y58.304 E.01707
G1 X84.109 Y70.644 E.55265
G1 X84.163 Y71.237 E.01886
G1 X71.23 Y58.304 E.57919
G1 X70.691 Y58.304 E.01707
G1 X84.112 Y71.725 E.60104
G1 X84.061 Y72.212 E.01551
G1 X70.153 Y58.304 E.62285
G1 X69.845 Y58.304 E.00975
G1 X69.654 Y58.344 E.00618
G1 X84.01 Y72.7 E.64291
G1 X83.959 Y73.187 E.01551
G1 X69.21 Y58.439 E.66049
G1 X68.766 Y58.533 E.01437
G1 X83.907 Y73.674 E.67807
G1 X83.884 Y73.896 E.00707
G1 X83.812 Y74.118 E.00739
G1 X68.322 Y58.627 E.69372
G1 X67.878 Y58.722 E.01438
G1 X83.68 Y74.524 E.70767
G1 X83.548 Y74.931 E.01355
G1 X76.515 Y67.898 E.31496
G1 X75.899 Y66.916 E.03671
G1 X74.345 Y65.728 E.06194
G1 X67.433 Y58.816 E.30954
G1 X67.193 Y58.867 E.00777
G1 X67.022 Y58.943 E.00593
G1 X73.4 Y65.321 E.28563
G1 X72.642 Y65.102 E.02499
G1 X66.649 Y59.109 E.26839
G1 X66.277 Y59.275 E.0129
G1 X71.89 Y64.889 E.25139
G1 X71.627 Y64.87 E.00835
G1 X71.358 Y64.895 E.00856
G1 X65.904 Y59.441 E.24425
G1 X65.531 Y59.607 E.01293
G1 X70.865 Y64.941 E.23888
G1 X70.372 Y64.986 E.01568
G1 X65.159 Y59.773 E.23346
G1 X64.786 Y59.939 E.01293
M73 P4 R23
G1 X69.879 Y65.032 E.22808
G1 X69.615 Y65.057 E.0084
G1 X69.412 Y65.103 E.00659
G1 X64.463 Y60.154 E.22163
G1 X64.151 Y60.381 E.01222
G1 X69.048 Y65.278 E.2193
G1 X68.688 Y65.456 E.01272
G1 X63.839 Y60.607 E.21716
G1 X63.527 Y60.834 E.01222
G1 X68.328 Y65.635 E.21501
G1 X67.968 Y65.813 E.01272
G1 X63.215 Y61.061 E.21283
G1 X62.903 Y61.287 E.0122
G1 X67.608 Y65.992 E.21071
G1 X67.369 Y66.127 E.00869
G1 X67.283 Y66.206 E.0037
G1 X62.591 Y61.514 E.21012
G1 X62.523 Y61.563 E.00265
G1 X62.324 Y61.785 E.00944
G1 X67.023 Y66.485 E.21046
G1 X66.766 Y66.766 E.01206
G1 X62.068 Y62.068 E.21039
G1 X61.813 Y62.352 E.01209
G1 X66.509 Y67.048 E.2103
G1 X66.253 Y67.33 E.01206
G1 X61.558 Y62.635 E.21026
G1 X61.303 Y62.919 E.01209
G1 X65.996 Y67.612 E.21017
G1 X65.788 Y67.864 E.01035
G1 X65.766 Y67.92 E.00191
G1 X61.048 Y63.202 E.21129
G1 X60.792 Y63.485 E.01208
G1 X65.614 Y68.307 E.21595
G1 X65.462 Y68.693 E.01314
G1 X60.576 Y63.808 E.21879
G1 X60.379 Y64.149 E.01247
G1 X65.309 Y69.08 E.22081
G1 X65.157 Y69.466 E.01314
G1 X60.182 Y64.491 E.2228
G1 X59.985 Y64.832 E.01247
G1 X65.005 Y69.852 E.22481
G1 X64.937 Y70.184 E.01073
G1 X64.937 Y70.322 E.00437
G1 X59.788 Y65.174 E.23057
G1 X59.591 Y65.515 E.01247
G1 X64.937 Y70.861 E.23941
G1 X64.937 Y71.4 E.01707
G1 X59.394 Y65.857 E.24824
G1 X59.354 Y65.926 E.00253
G1 X59.248 Y66.25 E.0108
G1 X64.937 Y71.938 E.25475
G1 X64.937 Y72.216 E.0088
G1 X65.004 Y72.544 E.0106
G1 X59.116 Y66.657 E.26366
G1 X58.984 Y67.063 E.01352
G1 X65.654 Y73.733 E.29871
M204 P1000
G1 E-2.24 F4200
;WIPE_START
G1 F7200
G1 X64.429 Y72.508 E-.96
;WIPE_END
G1 Z.4 F720
G1 X76.885 Y68.806 F9000
G1 Z.2 F720
G1 E3.2 F2400
M204 P600
G1 F1200
G1 X83.416 Y75.337 E.29248
G1 X83.284 Y75.744 E.01355
G1 X77.297 Y69.757 E.26812
G1 X77.424 Y70.423 E.02147
G1 X83.152 Y76.15 E.2565
G1 X83.046 Y76.474 E.0108
G1 X83.006 Y76.543 E.00253
G1 X77.546 Y71.083 E.24452
G1 X77.557 Y71.2 E.00372
G1 X77.501 Y71.576 E.01204
G1 X82.809 Y76.885 E.23773
G1 X82.612 Y77.226 E.01247
G1 X77.414 Y72.029 E.23276
G1 X77.328 Y72.481 E.01457
G1 X82.415 Y77.568 E.22781
G1 X82.218 Y77.909 E.01247
G1 X77.242 Y72.933 E.22284
G1 X77.155 Y73.385 E.01458
G1 X82.021 Y78.251 E.21792
G1 X81.824 Y78.592 E.01247
G1 X76.985 Y73.753 E.21671
G1 X76.777 Y74.084 E.01238
G1 X81.607 Y78.915 E.21633
G1 X81.352 Y79.198 E.01206
M73 P5 R23
G1 X76.57 Y74.415 E.21418
G1 X76.362 Y74.746 E.01238
G1 X81.097 Y79.481 E.21205
G1 X80.842 Y79.765 E.01209
G1 X76.154 Y75.077 E.20995
G1 X75.947 Y75.408 E.01236
G1 X80.587 Y80.048 E.2078
G1 X80.332 Y80.332 E.01209
G1 X75.664 Y75.664 E.20905
G1 X75.359 Y75.897 E.01215
G1 X80.076 Y80.615 E.21127
G1 X79.877 Y80.837 E.00944
G1 X79.809 Y80.886 E.00265
G1 X75.053 Y76.131 E.21297
G1 X74.748 Y76.364 E.01215
G1 X79.497 Y81.113 E.21268
G1 X79.185 Y81.339 E.0122
G1 X74.443 Y76.597 E.21236
G1 X74.135 Y76.828 E.01219
G1 X78.873 Y81.566 E.21218
G1 X78.561 Y81.793 E.01222
G1 X73.747 Y76.978 E.21561
G1 X73.329 Y77.099 E.01378
G1 X78.249 Y82.019 E.22033
G1 X77.937 Y82.246 E.01222
G1 X72.911 Y77.22 E.22508
G1 X72.494 Y77.341 E.01375
G1 X77.614 Y82.461 E.22929
G1 X77.241 Y82.627 E.01293
G1 X72.076 Y77.462 E.23131
G1 X71.941 Y77.501 E.00445
G1 X71.706 Y77.534 E.00751
G1 X71.6 Y77.524 E.00337
G1 X76.869 Y82.793 E.23596
G1 X76.496 Y82.959 E.01293
G1 X71.005 Y77.468 E.24591
G1 X70.411 Y77.413 E.01889
G1 X76.123 Y83.125 E.2558
G1 X75.751 Y83.291 E.0129
G1 X69.817 Y77.357 E.26575
G1 X69.519 Y77.329 E.00948
G1 X69.313 Y77.257 E.00691
G1 X69.041 Y77.12 E.00964
G1 X75.378 Y83.457 E.28379
G1 X75.207 Y83.533 E.00593
G1 X74.966 Y83.584 E.0078
G1 X67.952 Y76.57 E.31411
G1 X67.368 Y76.274 E.02073
G1 X65.892 Y74.674 E.06893
G1 X65.788 Y74.536 E.00547
G1 X65.703 Y74.321 E.00732
G1 X58.852 Y67.47 E.30681
G1 X58.72 Y67.876 E.01352
G1 X74.522 Y83.678 E.70767
G1 X74.078 Y83.773 E.01438
G1 X58.588 Y68.283 E.6937
G1 X58.516 Y68.504 E.00736
G1 X58.493 Y68.726 E.00707
G1 X73.634 Y83.867 E.67807
G1 X73.19 Y83.961 E.01437
G1 X58.441 Y69.213 E.66049
G1 X58.39 Y69.701 E.01554
G1 X72.746 Y84.056 E.64289
G1 X72.555 Y84.096 E.00618
G1 X72.247 Y84.096 E.00975
M73 P6 R23
G1 X58.339 Y70.188 E.62285
G1 X58.288 Y70.675 E.01551
G1 X71.709 Y84.096 E.60104
G1 X71.17 Y84.096 E.01707
G1 X58.237 Y71.163 E.57919
G1 X58.291 Y71.756 E.01886
G1 X70.632 Y84.096 E.55265
G1 X70.093 Y84.096 E.01707
G1 X58.354 Y72.358 E.52569
G1 X58.418 Y72.959 E.01914
G1 X69.476 Y84.018 E.49524
G1 X68.792 Y83.873 E.02214
G1 X58.481 Y73.561 E.46179
G1 X58.516 Y73.896 E.01067
G1 X58.631 Y74.25 E.01179
G1 X68.108 Y83.727 E.42441
G1 X67.424 Y83.582 E.02214
G1 X58.89 Y75.048 E.38218
G1 X59.149 Y75.846 E.02657
G1 X66.55 Y83.247 E.33144
G1 X65.58 Y82.814 E.03364
G1 X59.51 Y76.745 E.27181
G1 X60.245 Y78.019 E.04658
G1 X64.498 Y82.272 E.19046
G1 X62.529 Y80.841 E.07708
G1 X60.518 Y78.83 E.09006
M204 P1000
; stop printing object PatioDoorSensorMount.stl id:0 copy 0
M106 S84.15
;LAYER_CHANGE
;Z:0.35
;HEIGHT:0.15
;BEFORE_LAYER_CHANGE
G92 E0.0
;0.35


G1 E-2.24 F4200
;WIPE_START
M73 P6 R22
G1 F7200
G1 X61.743 Y80.055 E-.96
;WIPE_END
G1 Z.4 F720
;AFTER_LAYER_CHANGE
;0.35
G1 X58.901 Y82.614 F9000
G1 Z.35 F720
G1 E3.2 F2400
;TYPE:Skirt/Brim
;WIDTH:0.42
G1 X57.746 Y81.331 E.04175
G1 X57.408 Y80.865 E.01392
G1 X55.934 Y78.312 E.0713
G1 X55.7 Y77.786 E.01392
G1 X54.789 Y74.983 E.07128
G1 X54.669 Y74.419 E.01395
G1 X54.361 Y71.488 E.07128
G1 X54.361 Y70.912 E.01393
G1 X54.669 Y67.981 E.07128
G1 X54.789 Y67.417 E.01395
G1 X55.7 Y64.614 E.07128
G1 X55.934 Y64.088 E.01392
G1 X57.408 Y61.535 E.0713
G1 X57.746 Y61.069 E.01392
G1 X59.719 Y58.879 E.07129
G1 X61.458 Y57.541 E.05307
G1 X63.03 Y56.473 E.04596
G1 X65.723 Y55.274 E.07129
G1 X66.27 Y55.096 E.01391
G1 X69.154 Y54.483 E.07131
G1 X69.726 Y54.423 E.01391
G1 X72.674 Y54.423 E.0713
G1 X73.246 Y54.483 E.01391
G1 X76.13 Y55.096 E.07131
G1 X76.677 Y55.274 E.01391
G1 X79.37 Y56.473 E.07129
G1 X79.869 Y56.761 E.01393
G1 X82.254 Y58.493 E.07129
G1 X82.681 Y58.879 E.01392
G1 X84.654 Y61.069 E.07129
G1 X84.992 Y61.535 E.01392
G1 X86.466 Y64.088 E.0713
G1 X86.7 Y64.614 E.01392
G1 X87.611 Y67.417 E.07128
G1 X87.731 Y67.981 E.01395
G1 X88.039 Y70.912 E.07128
G1 X88.039 Y71.488 E.01393
G1 X87.731 Y74.419 E.07128
G1 X87.611 Y74.983 E.01395
G1 X86.7 Y77.786 E.07128
G1 X86.466 Y78.312 E.01392
G1 X84.992 Y80.865 E.0713
G1 X84.654 Y81.331 E.01392
