; generated by PrusaSlicer 2.6.0 on 2023-07-26 at 02:18:17 UTC


;
;

;
;
; 

; external perimeters extrusion width = 0.45mm
; perimeters extrusion width = 0.45mm
; infill extrusion width = 0.45mm
; solid infill extrusion width = 0.45mm
; top infill extrusion width = 0.40mm
; support material extrusion width = 0.35mm
; first layer extrusion width = 0.42mm

M73 P0 R108
M201 X2500 Y2500 Z400 E5000 ; sets maximum accelerations, mm/sec^2
M203 X180 Y180 Z12 E80 ; sets maximum feedrates, mm / sec
M204 P2000 R1250 T2500 ; sets acceleration (P, T) and retract acceleration (R), mm/sec^2
M205 X8.00 Y8.00 Z2.00 E10.00 ; sets the jerk limits, mm/sec
M205 S0 T0 ; sets the minimum extruding and travel feed rate, mm/sec
;TYPE:Custom
M862.3 P "MINI" ; printer model check
G90 ; use absolute coordinates
M83 ; extruder relative mode
M104 S170 ; set extruder temp for bed leveling
M140 S60 ; set bed temp
M109 R170 ; wait for bed leveling temp
M190 S60 ; wait for bed temp
M204 T1250 ; set travel acceleration
G28 ; home all without mesh bed level
G29 ; mesh bed leveling 
M204 T2500 ; restore travel acceleration
M104 S215 ; set extruder temp
G92 E0
G1 Y-2 X179 F2400
G1 Z3 F720
M109 S215 ; wait for extruder temp

; intro line
G1 X170 F1000
G1 Z0.2 F720
G1 X110 E8 F900
G1 X40 E10 F700
G92 E0

M221 S95 ; set flow
G21 ; set units to millimeters
G90 ; use absolute coordinates
M83 ; use relative distances for extrusion
M900 K0.2 ; Filament gcode LA 1.5
; ; Filament gcode LA 1.0
M107
;LAYER_CHANGE
;Z:0.2
;HEIGHT:0.2
;BEFORE_LAYER_CHANGE
G92 E0.0
;0.2


G1 E-3.2 F4200
G1 Z.2 F720
;AFTER_LAYER_CHANGE
;0.2
G1 Z.4
G1 X49.348 Y25.153 F9000
G1 Z.2 F720
G1 E3.2 F2400
M204 P600
;TYPE:Skirt/Brim
;WIDTH:0.42
G1 F1200
G1 X49.875 Y24.234 E.03322
G1 X50.442 Y23.485 E.02945
G1 X51.181 Y22.726 E.03321
G1 X51.917 Y22.141 E.02948
G1 X52.821 Y21.59 E.03319
G1 X53.679 Y21.206 E.02947
G1 X55.114 Y20.816 E.04663
G1 X56.044 Y20.711 E.02934
G1 X123.966 Y20.706 E2.12965
G1 X125.342 Y20.912 E.04362
G1 X126.519 Y21.294 E.0388
G1 X128.011 Y22.106 E.05326
G1 X129.057 Y22.971 E.04256
G1 X130.134 Y24.285 E.05327
G1 X130.73 Y25.369 E.03879
G1 X131.208 Y26.769 E.04638
G1 X131.426 Y28.257 E.04715
G1 X131.434 Y151.498 E3.86414
G1 X131.262 Y153.017 E.04793
M73 P0 R107
G1 X131.01 Y153.923 E.02949
G1 X130.603 Y154.901 E.03321
G1 X130.134 Y155.715 E.02946
G1 X129.496 Y156.561 E.03322
G1 X128.839 Y157.233 E.02947
G1 X128.011 Y157.894 E.03322
G1 X127.208 Y158.382 E.02946
G1 X126.241 Y158.816 E.03323
G1 X125.342 Y159.088 E.02945
G1 X123.754 Y159.304 E.05025
G1 X81.022 Y159.504 E1.33985
G1 X56.448 Y159.304 E.77053
G1 X55.619 Y159.261 E.02603
G1 X54.692 Y159.103 E.02948
G1 X53.679 Y158.794 E.03321
G1 X52.821 Y158.41 E.02947
G1 X51.917 Y157.859 E.03319
G1 X50.963 Y157.07 E.03882
G1 X49.875 Y155.766 E.05325
G1 X49.221 Y154.576 E.04258
G1 X24.582 Y89.917 E2.16954
G1 X24.154 Y88.311 E.05211
G1 X23.999 Y87.095 E.03844
G1 X23.996 Y85.682 E.0443
G1 X24.095 Y84.738 E.02976
G1 X24.501 Y83.078 E.05358
G1 X24.83 Y82.197 E.02949
G1 X49.324 Y25.209 E1.94487
M204 P1000
G1 E-2.24 F4200
;WIPE_START
G1 F7200
G1 X49.875 Y24.234 E-.62062
G1 X50.245 Y23.746 E-.33938
;WIPE_END
G1 Z.4 F720
G1 X56.148 Y92.739 F9000
G1 Z.2 F720
G1 E3.2 F2400
M204 P600
G1 F1200
G1 X56.44 Y92.709 E.0092
G1 X123.739 Y92.712 E2.11011
G1 X124.822 Y92.883 E.03438
G1 X125.848 Y93.263 E.03431
G1 X127.373 Y94.418 E.05998
G1 X127.995 Y95.246 E.03247
G1 X128.442 Y96.155 E.03176
G1 X128.77 Y97.815 E.05305
G1 X128.77 Y151.491 E1.68297
G1 X128.618 Y152.604 E.03522
G1 X128.217 Y153.703 E.03668
G1 X127.6 Y154.665 E.03583
G1 X126.813 Y155.462 E.03512
G1 X125.354 Y156.296 E.05269
G1 X123.738 Y156.641 E.05181
G1 X85.616 Y156.641 E1.19529
G1 X84.976 Y156.664 E.02008
G1 X83.716 Y156.837 E.03988
G1 X80.359 Y156.836 E.10526
G1 X79.095 Y156.663 E.04
G1 X78.454 Y156.641 E.02011
G1 X56.312 Y156.634 E.69425
G1 X55.257 Y156.493 E.03337
G1 X54.264 Y156.145 E.03299
G1 X53.358 Y155.608 E.03302
G1 X52.575 Y154.908 E.03293
G1 X51.64 Y153.442 E.05452
G1 X51.211 Y151.683 E.05677
G1 X51.211 Y97.637 E1.69457
G1 X51.784 Y95.579 E.06698
G1 X52.314 Y94.762 E.03053
G1 X52.955 Y94.064 E.02971
G1 X54.62 Y93.048 E.06116
G1 X55.504 Y92.804 E.02875
G1 X56.088 Y92.745 E.0184
M204 P1000
G1 X56.125 Y93.119 F9000
M204 P600
G1 F1200
G1 X56.45 Y93.086 E.01024
G1 X123.724 Y93.089 E2.10933
G1 X124.743 Y93.253 E.03236
G1 X125.689 Y93.606 E.03166
G1 X127.122 Y94.701 E.05655
G1 X127.681 Y95.455 E.02943
G1 X128.092 Y96.298 E.02941
G1 X128.393 Y97.833 E.04905
G1 X128.393 Y151.478 E1.682
G1 X128.247 Y152.531 E.03333
G1 X127.871 Y153.552 E.03411
G1 X127.295 Y154.444 E.03329
G1 X126.564 Y155.178 E.03248
G1 X125.245 Y155.934 E.04767
G1 X123.717 Y156.264 E.04901
G1 X85.609 Y156.264 E1.19485
G1 X84.943 Y156.287 E.02089
G1 X83.703 Y156.46 E.03926
G1 X80.372 Y156.459 E.10444
G1 X79.127 Y156.287 E.03941
G1 X78.46 Y156.264 E.02093
G1 X56.348 Y156.258 E.69331
G1 X55.362 Y156.13 E.03117
G1 X54.438 Y155.811 E.03065
G1 X53.595 Y155.314 E.03068
G1 X52.847 Y154.644 E.03149
G1 X51.976 Y153.267 E.05109
G1 X51.589 Y151.661 E.0518
G1 X51.589 Y97.662 E1.6931
G1 X52.117 Y95.759 E.06192
M73 P1 R107
G1 X52.603 Y95.005 E.02813
G1 X53.215 Y94.338 E.02838
G1 X54.745 Y93.405 E.05619
G1 X55.589 Y93.172 E.02745
G1 X56.066 Y93.124 E.01503
M204 P1000
G1 X56.103 Y93.499 F9000
M204 P600
G1 F1200
G1 X56.459 Y93.463 E.01122
G1 X123.709 Y93.467 E2.10858
G1 X124.629 Y93.613 E.02921
G1 X125.531 Y93.949 E.03018
G1 X126.836 Y94.947 E.05151
G1 X127.35 Y95.637 E.02698
G1 X127.742 Y96.441 E.02805
G1 X128.016 Y97.851 E.04504
G1 X128.016 Y151.465 E1.68103
G1 X127.886 Y152.422 E.03028
G1 X127.542 Y153.367 E.03153
G1 X127.013 Y154.192 E.03073
G1 X126.315 Y154.893 E.03102
G1 X125.085 Y155.591 E.04434
G1 X123.698 Y155.887 E.04447
G1 X85.602 Y155.887 E1.19447
G1 X84.91 Y155.911 E.02171
G1 X83.69 Y156.083 E.03863
G1 X80.385 Y156.082 E.10363
G1 X79.16 Y155.91 E.03879
G1 X78.467 Y155.887 E.02174
G1 X56.383 Y155.883 E.69243
G1 X55.465 Y155.767 E.02901
G1 X54.613 Y155.476 E.02823
G1 X53.803 Y154.999 E.02947
G1 X53.119 Y154.382 E.02888
G1 X52.312 Y153.094 E.04766
G1 X51.966 Y151.639 E.04689
G1 X51.966 Y97.688 E1.6916
G1 X52.449 Y95.939 E.05689
G1 X52.911 Y95.223 E.02672
G1 X53.474 Y94.614 E.026
G1 X54.872 Y93.761 E.05135
G1 X55.643 Y93.545 E.0251
G1 X56.043 Y93.505 E.0126
M204 P1000
G1 X56.08 Y93.878 F9000
M204 P600
G1 F1200
G1 X56.468 Y93.841 E.01222
G1 X123.694 Y93.844 E2.10782
G1 X124.55 Y93.982 E.02719
G1 X125.372 Y94.292 E.02755
G1 X126.549 Y95.194 E.04649
G1 X127.036 Y95.847 E.02554
G1 X127.392 Y96.582 E.02561
G1 X127.639 Y97.868 E.04106
G1 X127.639 Y151.452 E1.68009
G1 X127.515 Y152.349 E.02839
M73 P1 R106
G1 X127.195 Y153.216 E.02898
G1 X126.708 Y153.97 E.02814
G1 X126.067 Y154.608 E.02836
G1 X124.977 Y155.229 E.03933
G1 X123.677 Y155.509 E.0417
G1 X85.596 Y155.51 E1.194
G1 X84.877 Y155.535 E.02256
G1 X83.676 Y155.706 E.03804
G1 X80.399 Y155.705 E.10275
G1 X79.193 Y155.534 E.03819
G1 X78.473 Y155.51 E.02259
G1 X56.417 Y155.507 E.69155
G1 X55.568 Y155.404 E.02681
G1 X54.754 Y155.126 E.02697
G1 X54.013 Y154.685 E.02704
G1 X53.392 Y154.121 E.0263
G1 X52.671 Y152.975 E.04245
G1 X52.343 Y151.616 E.04383
G1 X52.343 Y97.713 E1.69009
G1 X52.782 Y96.118 E.05187
G1 X53.199 Y95.467 E.02424
G1 X53.733 Y94.889 E.02467
G1 X54.999 Y94.117 E.04649
G1 X55.728 Y93.913 E.02374
G1 X56.02 Y93.884 E.0092
M204 P1000
G1 X56.057 Y94.259 F9000
M204 P600
G1 F1200
G1 X56.477 Y94.218 E.01323
G1 X123.678 Y94.221 E2.10704
G1 X124.469 Y94.35 E.02513
G1 X125.211 Y94.634 E.02491
G1 X126.263 Y95.441 E.04157
G1 X126.705 Y96.028 E.02304
G1 X127.041 Y96.724 E.02423
G1 X127.262 Y97.886 E.03709
G1 X127.262 Y151.44 E1.67915
G1 X127.154 Y152.24 E.02531
G1 X126.867 Y153.029 E.02632
G1 X126.403 Y153.747 E.0268
G1 X125.821 Y154.322 E.02565
G1 X124.818 Y154.886 E.03608
G1 X123.658 Y155.132 E.03718
G1 X85.589 Y155.133 E1.19363
G1 X84.843 Y155.159 E.0234
G1 X83.663 Y155.328 E.03738
G1 X80.413 Y155.328 E.1019
G1 X79.227 Y155.158 E.03757
G1 X78.479 Y155.133 E.02347
G1 X56.449 Y155.131 E.69074
G1 X55.669 Y155.04 E.02462
G1 X54.927 Y154.79 E.02455
G1 X54.252 Y154.393 E.02455
G1 X53.665 Y153.86 E.02486
G1 X53.008 Y152.802 E.03905
G1 X52.72 Y151.594 E.03894
G1 X52.72 Y97.738 E1.68862
G1 X53.116 Y96.298 E.04683
G1 X53.508 Y95.685 E.02281
G1 X53.991 Y95.165 E.02225
G1 X55.126 Y94.472 E.0417
G1 X55.783 Y94.286 E.02141
G1 X55.998 Y94.265 E.00677
M204 P1000
G1 X56.033 Y94.638 F9000
M204 P600
G1 F1200
G1 X56.486 Y94.595 E.01427
G1 X123.662 Y94.598 E2.10626
G1 X124.387 Y94.719 E.02305
G1 X125.049 Y94.976 E.02227
G1 X125.977 Y95.688 E.03667
G1 X126.392 Y96.239 E.02163
G1 X126.69 Y96.864 E.02171
G1 X126.885 Y97.903 E.03315
G1 X126.885 Y151.426 E1.67818
G1 X126.783 Y152.168 E.02348
G1 X126.521 Y152.878 E.02373
G1 X126.099 Y153.523 E.02417
G1 X125.576 Y154.034 E.02293
G1 X124.661 Y154.542 E.03281
G1 X123.639 Y154.755 E.03273
G1 X85.582 Y154.756 E1.19325
G1 X84.809 Y154.783 E.02425
G1 X83.649 Y154.951 E.03675
G1 X80.426 Y154.951 E.10105
G1 X79.26 Y154.782 E.03694
G1 X78.486 Y154.756 E.02428
G1 X56.48 Y154.755 E.68998
G1 X55.769 Y154.676 E.02243
G1 X55.067 Y154.439 E.02323
G1 X54.462 Y154.079 E.02207
G1 X53.939 Y153.599 E.02226
G1 X53.367 Y152.683 E.03386
G1 X53.097 Y151.571 E.03588
G1 X53.097 Y97.763 E1.68711
G1 X53.449 Y96.475 E.04187
G1 X53.796 Y95.928 E.02031
G1 X54.25 Y95.44 E.0209
G1 X55.254 Y94.828 E.03687
G1 X55.869 Y94.654 E.02004
G1 X55.974 Y94.644 E.00331
M204 P1000
G1 X56.01 Y95.019 F9000
M204 P600
G1 F1200
G1 X56.495 Y94.972 E.01528
G1 X123.647 Y94.975 E2.1055
G1 X124.269 Y95.078 E.01977
G1 X124.888 Y95.318 E.02082
G1 X125.691 Y95.935 E.03175
G1 X126.079 Y96.45 E.02022
G1 X126.338 Y97.001 E.01909
G1 X126.508 Y97.92 E.0293
G1 X126.508 Y151.413 E1.67724
G1 X126.413 Y152.095 E.02159
G1 X126.176 Y152.725 E.0211
G1 X125.797 Y153.297 E.02151
G1 X125.332 Y153.745 E.02025
G1 X124.554 Y154.179 E.02793
G1 X123.619 Y154.378 E.02997
G1 X85.576 Y154.379 E1.19281
G1 X84.775 Y154.407 E.02513
G1 X83.635 Y154.574 E.03613
G1 X80.44 Y154.574 E.10018
G1 X79.294 Y154.406 E.03632
G1 X78.492 Y154.379 E.02516
G1 X56.49 Y154.378 E.68986
G1 X55.868 Y154.311 E.01962
G1 X55.24 Y154.104 E.02073
G1 X54.702 Y153.787 E.01958
G1 X54.213 Y153.339 E.02079
G1 X53.704 Y152.512 E.03045
G1 X53.474 Y151.55 E.03101
G1 X53.474 Y97.788 E1.68567
G1 X53.783 Y96.653 E.03688
M73 P2 R106
G1 X54.105 Y96.146 E.01883
G1 X54.507 Y95.717 E.01843
G1 X55.383 Y95.183 E.03217
G1 X55.951 Y95.025 E.01849
M204 P1000
G1 X56.01 Y95.395 F9000
M204 P600
G1 F1200
G1 X56.504 Y95.349 E.01556
G1 X123.631 Y95.352 E2.10472
G1 X124.186 Y95.446 E.01765
G1 X124.723 Y95.658 E.0181
G1 X125.438 Y96.215 E.02842
G1 X125.763 Y96.657 E.0172
G1 X125.986 Y97.137 E.01659
G1 X126.131 Y97.937 E.02549
G1 X126.131 Y151.401 E1.67633
G1 X126.051 Y151.985 E.01848
G1 X125.848 Y152.537 E.01844
G1 X125.519 Y153.041 E.01887
G1 X125.089 Y153.456 E.01874
G1 X124.398 Y153.835 E.02471
G1 X123.6 Y154.001 E.02556
G1 X85.569 Y154.002 E1.19244
G1 X84.74 Y154.031 E.02601
G1 X83.621 Y154.197 E.03547
G1 X80.454 Y154.196 E.0993
G1 X79.328 Y154.03 E.03569
G1 X78.499 Y154.002 E.02601
G1 X56.5 Y154.001 E.68976
G1 X55.93 Y153.939 E.01798
G1 X55.381 Y153.753 E.01817
G1 X54.913 Y153.474 E.01708
G1 X54.49 Y153.082 E.01808
G1 X54.042 Y152.343 E.0271
G1 X53.851 Y151.528 E.02625
G1 X53.851 Y97.813 E1.6842
G1 X54.117 Y96.829 E.03196
G1 X54.392 Y96.39 E.01624
G1 X54.764 Y95.994 E.01704
G1 X55.512 Y95.539 E.02745
G1 X55.952 Y95.411 E.01437
M204 P1000
G1 X56.058 Y95.77 F9000
M204 P600
G1 F1200
G1 X56.513 Y95.726 E.01433
G1 X123.614 Y95.729 E2.1039
G1 X124.101 Y95.814 E.0155
M73 P2 R105
G1 X124.557 Y95.997 E.01541
G1 X125.151 Y96.461 E.02363
G1 X125.43 Y96.834 E.0146
G1 X125.633 Y97.274 E.01519
G1 X125.754 Y97.953 E.02162
G1 X125.754 Y151.388 E1.67542
G1 X125.681 Y151.911 E.01656
G1 X125.503 Y152.383 E.01582
G1 X125.218 Y152.813 E.01617
G1 X124.848 Y153.165 E.01601
G1 X124.245 Y153.489 E.02146
G1 X123.581 Y153.624 E.02125
G1 X85.563 Y153.624 E1.19203
G1 X84.705 Y153.655 E.02692
G1 X83.607 Y153.82 E.03481
G1 X80.469 Y153.819 E.09839
G1 X79.363 Y153.653 E.03507
G1 X78.505 Y153.624 E.02692
G1 X56.51 Y153.624 E.68964
G1 X56.027 Y153.574 E.01523
G1 X55.556 Y153.419 E.01555
G1 X55.124 Y153.161 E.01578
G1 X54.767 Y152.825 E.01537
G1 X54.401 Y152.226 E.02201
G1 X54.228 Y151.506 E.02322
G1 X54.228 Y97.838 E1.68272
G1 X54.452 Y97.005 E.02705
G1 X54.702 Y96.607 E.01474
G1 X55.02 Y96.272 E.01448
G1 X55.642 Y95.893 E.02284
G1 X56.001 Y95.787 E.01174
M204 P1000
G1 X56.109 Y96.145 F9000
M204 P600
G1 F1200
G1 X56.522 Y96.103 E.01302
G1 X123.597 Y96.106 E2.10309
G1 X124.013 Y96.181 E.01325
G1 X124.389 Y96.336 E.01275
G1 X124.864 Y96.707 E.0189
G1 X125.115 Y97.043 E.01315
G1 X125.28 Y97.406 E.0125
G1 X125.377 Y97.968 E.01788
G1 X125.377 Y151.375 E1.67454
G1 X125.319 Y151.802 E.01351
G1 X125.176 Y152.194 E.01308
G1 X124.916 Y152.586 E.01475
G1 X124.609 Y152.873 E.01318
G1 X124.141 Y153.126 E.01668
G1 X123.561 Y153.247 E.01858
G1 X85.556 Y153.247 E1.19162
G1 X84.67 Y153.279 E.0278
G1 X83.593 Y153.443 E.03416
G1 X80.483 Y153.442 E.09751
G1 X79.398 Y153.277 E.03441
G1 X78.511 Y153.247 E.02783
G1 X56.52 Y153.247 E.68951
G1 X56.089 Y153.201 E.01359
G1 X55.698 Y153.069 E.01294
G1 X55.339 Y152.851 E.01317
G1 X55.047 Y152.571 E.01268
G1 X54.74 Y152.058 E.01874
G1 X54.605 Y151.484 E.01849
G1 X54.605 Y97.862 E1.68128
G1 X54.788 Y97.179 E.02217
G1 X54.989 Y96.852 E.01203
G1 X55.276 Y96.55 E.01306
G1 X55.775 Y96.247 E.0183
G1 X56.052 Y96.163 E.00908
M204 P1000
G1 X56.162 Y96.523 F9000
M204 P600
G1 F1200
G1 X56.53 Y96.48 E.01162
G1 X123.578 Y96.483 E2.10224
G1 X123.922 Y96.548 E.01098
G1 X124.217 Y96.672 E.01003
G1 X124.607 Y96.984 E.01566
G1 X124.797 Y97.246 E.01015
G1 X124.925 Y97.536 E.00994
G1 X124.999 Y97.983 E.01421
G1 X124.999 Y151.362 E1.67366
G1 X124.949 Y151.729 E.01161
G1 X124.832 Y152.038 E.01036
G1 X124.618 Y152.354 E.01197
G1 X124.374 Y152.577 E.01036
G1 X123.99 Y152.779 E.0136
G1 X123.543 Y152.87 E.0143
G1 X85.549 Y152.87 E1.19128
G1 X84.634 Y152.902 E.02871
G1 X83.578 Y153.066 E.03351
G1 X80.498 Y153.065 E.09657
G1 X79.433 Y152.901 E.03379
G1 X78.518 Y152.87 E.02871
G1 X56.528 Y152.87 E.68948
G1 X56.185 Y152.836 E.01081
G1 X55.871 Y152.733 E.01036
G1 X55.584 Y152.563 E.01046
G1 X55.325 Y152.316 E.01122
G1 X55.099 Y151.94 E.01375
G1 X54.982 Y151.461 E.01546
G1 X54.982 Y97.887 E1.67978
G1 X55.124 Y97.352 E.01736
G1 X55.299 Y97.068 E.01046
G1 X55.529 Y96.83 E.01038
G1 X55.907 Y96.6 E.01387
G1 X56.104 Y96.541 E.00645
M204 P1000
G1 X56.217 Y96.898 F9000
M204 P600
G1 F1200
G1 X56.538 Y96.857 E.01015
G1 X123.559 Y96.86 E2.1014
G1 X123.828 Y96.913 E.0086
G1 X124.042 Y97.007 E.00733
G1 X124.317 Y97.226 E.01102
G1 X124.478 Y97.449 E.00862
G1 X124.569 Y97.661 E.00723
G1 X124.622 Y97.998 E.0107
G1 X124.622 Y151.351 E1.67285
G1 X124.588 Y151.617 E.00841
G1 X124.488 Y151.882 E.00888
G1 X124.323 Y152.118 E.00903
G1 X124.144 Y152.278 E.00753
G1 X123.844 Y152.431 E.01056
G1 X123.526 Y152.493 E.01016
G1 X85.543 Y152.493 E1.19093
G1 X84.598 Y152.526 E.02965
G1 X83.563 Y152.689 E.03285
G1 X80.513 Y152.688 E.09563
G1 X79.469 Y152.525 E.03313
G1 X78.524 Y152.493 E.02965
G1 X56.538 Y152.493 E.68936
G1 X56.245 Y152.463 E.00923
G1 X56.014 Y152.384 E.00765
G1 X55.8 Y152.253 E.00787
G1 X55.609 Y152.066 E.00838
G1 X55.44 Y151.776 E.01052
G1 X55.359 Y151.439 E.01087
G1 X55.359 Y97.911 E1.67833
G1 X55.461 Y97.522 E.01261
M73 P3 R105
G1 X55.586 Y97.314 E.00761
G1 X55.783 Y97.111 E.00887
G1 X56.044 Y96.953 E.00957
G1 X56.16 Y96.916 E.00382
M204 P1000
G1 X56.28 Y97.271 F9000
M204 P600
G1 F1200
G1 X56.548 Y97.234 E.00848
G1 X123.538 Y97.237 E2.10042
G1 X123.727 Y97.277 E.00606
G1 X123.86 Y97.338 E.00459
G1 X124.054 Y97.498 E.00788
G1 X124.154 Y97.643 E.00552
G1 X124.211 Y97.78 E.00465
G1 X124.245 Y98.011 E.00732
G1 X124.245 Y151.341 E1.67212
G1 X124.225 Y151.513 E.00543
G1 X124.161 Y151.694 E.00602
G1 X124.054 Y151.853 E.00601
G1 X123.911 Y151.98 E.006
G1 X123.742 Y152.067 E.00596
G1 X123.506 Y152.116 E.00756
G1 X85.536 Y152.116 E1.19052
G1 X84.561 Y152.15 E.03059
G1 X83.548 Y152.312 E.03217
G1 X80.528 Y152.311 E.09469
